X:608
M:C|
L:1/8
K:G
c|d3g BGdB|Aaag fdef|gfgd BcdB|cAdc BGG:|
c|BGDG EGDG|ABcB cedc|BGEG EGce|dBcA BGGc|

